images/svg/logo4.svg

<svg width="104" height="56" viewBox="0 0 104 56" fill="none" xmlns="http://www.w3.org/2000/svg">
<path d="M26.7919 44.373C27.0374 44.6465 27.1681 44.9891 27.1613 45.3407C27.1738 45.57 27.1288 45.7989 27.0298 46.0105C26.9307 46.2221 26.78 46.4109 26.5889 46.563C26.112 46.8872 25.5213 47.0457 24.925 47.0093H22V40.8769H24.8651C25.4307 40.8431 25.9918 40.9871 26.4525 41.2844C26.6375 41.4238 26.784 41.6 26.8805 41.7991C26.9769 41.9982 27.0206 42.2148 27.0082 42.4317C27.025 42.77 26.907 43.1026 26.6754 43.3694C26.4531 43.6131 26.1459 43.782 25.8036 43.8488C26.1916 43.9125 26.5419 44.0983 26.7919 44.373ZM23.361 43.4473H24.5856C24.8639 43.4659 25.1404 43.3935 25.3643 43.2436C25.4562 43.1686 25.5278 43.0755 25.5734 42.9716C25.619 42.8677 25.6374 42.7558 25.6272 42.6445C25.6358 42.5335 25.617 42.4222 25.5722 42.3186C25.5273 42.215 25.4574 42.1217 25.3676 42.0453C25.137 41.8911 24.852 41.8177 24.5657 41.8386H23.361V43.4473ZM25.4841 45.799C25.5824 45.7222 25.6596 45.6261 25.7099 45.518C25.7601 45.4099 25.7819 45.2928 25.7736 45.1759C25.7811 45.0576 25.7583 44.9394 25.7069 44.8303C25.6556 44.7212 25.5771 44.6242 25.4774 44.5468C25.2379 44.3869 24.9432 44.3084 24.6455 44.3251H23.361V46.0117H24.6622C24.955 46.0269 25.2449 45.9519 25.4841 45.799Z" fill="#8E8F99"/>
<path d="M32.6487 47.0093L31.0547 44.6127H30.4557V47.0093H29.0847V40.8769H31.6803C32.3346 40.8358 32.9814 41.0224 33.4873 41.3982C33.8501 41.731 34.0689 42.1696 34.1043 42.6348C34.1397 43.1001 33.9893 43.5614 33.6803 43.9357C33.36 44.2659 32.9226 44.4861 32.4424 44.5588L34.1395 47.0093H32.6487ZM30.4557 43.7769H31.5772C32.3558 43.7769 32.7452 43.4673 32.7452 42.8482C32.7531 42.7217 32.7318 42.5952 32.6825 42.4766C32.6333 42.358 32.5571 42.2499 32.459 42.1591C32.2129 41.9749 31.896 41.8855 31.5772 41.9105H30.4424L30.4557 43.7769Z" fill="#8E8F99"/>
<path d="M40.1426 45.775H37.4106L36.928 47.0093H35.4905L37.9996 40.9458H39.5536L42.0527 47.0093H40.6151L40.1426 45.775ZM39.7766 44.8463L38.7782 42.258L37.7799 44.8463H39.7766Z" fill="#8E8F99"/>
<path d="M49.5234 47.0093H48.1624L45.1109 42.8391V47.0093H43.7532V40.8769H45.1109L48.1624 45.071V40.8769H49.5234V47.0093Z" fill="#8E8F99"/>
<path d="M57.2903 45.5414C57.0089 46.0044 56.5801 46.381 56.059 46.6229C55.4666 46.8923 54.8091 47.0251 54.1456 47.0093H51.723V40.8769H54.1456C54.8079 40.8614 55.4646 40.9909 56.059 41.2544C56.58 41.4908 57.0092 41.8636 57.2903 42.3239C57.5704 42.8227 57.7164 43.3737 57.7164 43.9326C57.7164 44.4916 57.5704 45.0426 57.2903 45.5414ZM55.7329 45.3946C56.1213 44.9872 56.3349 44.4681 56.3349 43.9311C56.3349 43.3942 56.1213 42.8751 55.7329 42.4677C55.2634 42.0987 54.6511 41.9114 54.0291 41.9464H53.0841V45.9159H54.0291C54.6511 45.9509 55.2634 45.7636 55.7329 45.3946Z" fill="#8E8F99"/>
<path d="M40.9945 6.76666C40.9945 6.76666 58.5614 12.7373 58.1887 21.3772V35.9907C58.1887 35.9907 40.6351 30.0171 41.0012 21.3772L40.9945 6.76666Z" fill="#8E8F99"/>
<path d="M73.8389 32.5694C77.1565 30.5139 80.9941 29.2408 85 28.8666V24.292C80.3842 25.8935 76.4686 28.7975 73.8389 32.5694Z" fill="#8E8F99"/>
<path d="M71.8456 33.9477C74.5611 29.0252 79.2686 25.2268 85 23.3336V10.152C85 10.152 59.9823 18.6571 60.5114 30.9609V51.7667C60.5114 51.7667 61.6262 51.3863 63.3799 50.6733C63.3799 50.0082 63.3799 49.3371 63.4598 48.6631C63.9776 42.9511 66.9939 37.658 71.8456 33.9477Z" fill="#8E8F99"/>
<path d="M69.4663 41.6768C69.5978 40.2339 69.891 38.8066 70.3415 37.4168C67.3205 40.621 65.491 44.5971 65.1104 48.7859C65.0738 49.1813 65.0538 49.5768 65.0438 49.9842C66.4648 49.3701 68.1186 48.6031 69.8557 47.7014C69.4124 45.7196 69.2813 43.6915 69.4663 41.6768Z" fill="#8E8F99"/>
<path d="M70.4612 41.7517C70.2947 43.5745 70.3988 45.4091 70.7707 47.2071C77.6058 43.5253 85.2861 37.8362 84.99 30.9609V30.3617C80.1066 30.8536 75.5377 32.7755 71.9853 35.832C71.1536 37.7262 70.6399 39.7213 70.4612 41.7517Z" fill="#8E8F99"/>
</svg>

<svg xmlns="http://www.w3.org/2000/svg" width="104" height="56" fill="none"><path fill="#8E8F99" d="M26.792 44.373c.245.274.376.616.37.968.012.229-.033.458-.132.67-.1.211-.25.4-.441.552a2.68 2.68 0 0 1-1.664.446H22v-6.132h2.865a2.647 2.647 0 0 1 1.588.407c.184.14.331.316.428.515.096.2.14.416.127.633.017.338-.101.67-.333.937a1.59 1.59 0 0 1-.871.48c.388.064.738.25.988.524Zm-3.431-.926h1.225c.278.019.554-.053.778-.203a.732.732 0 0 0 .21-.272.662.662 0 0 0 .053-.328.686.686 0 0 0-.055-.325.753.753 0 0 0-.204-.274 1.28 1.28 0 0 0-.802-.206H23.36v1.608Zm2.123 2.352a.77.77 0 0 0 .226-.281.694.694 0 0 0 .064-.342.704.704 0 0 0-.067-.346.781.781 0 0 0-.23-.283 1.366 1.366 0 0 0-.832-.222h-1.284v1.687h1.301c.293.015.583-.06.822-.213ZM32.649 47.01l-1.594-2.397h-.6v2.396h-1.37v-6.132h2.595a2.752 2.752 0 0 1 1.807.521c.363.333.582.772.617 1.237.036.465-.115.926-.424 1.3-.32.33-.757.551-1.238.624l1.697 2.45h-1.49Zm-2.193-3.233h1.121c.779 0 1.168-.31 1.168-.929a.831.831 0 0 0-.063-.371.908.908 0 0 0-.223-.318 1.307 1.307 0 0 0-.882-.248h-1.135l.014 1.866ZM40.143 45.775H37.41l-.483 1.234H35.49L38 40.946h1.554l2.499 6.063h-1.438l-.472-1.234Zm-.366-.929-.999-2.588-.998 2.588h1.997ZM49.523 47.01h-1.36l-3.052-4.17v4.17h-1.358v-6.133h1.358l3.051 4.194v-4.194h1.361v6.132ZM57.29 45.541a2.82 2.82 0 0 1-1.231 1.082 4.38 4.38 0 0 1-1.913.386h-2.423v-6.132h2.423a4.473 4.473 0 0 1 1.913.377c.521.237.95.61 1.231 1.07.28.499.426 1.05.426 1.609a3.28 3.28 0 0 1-.426 1.608Zm-1.557-.146a2.12 2.12 0 0 0 .602-1.464 2.12 2.12 0 0 0-.602-1.463 2.536 2.536 0 0 0-1.704-.522h-.945v3.97h.945a2.536 2.536 0 0 0 1.704-.521ZM40.995 6.767s17.566 5.97 17.194 14.61v14.614S40.635 30.017 41 21.377l-.006-14.61ZM73.839 32.57c3.317-2.056 7.155-3.33 11.161-3.703v-4.575c-4.616 1.601-8.531 4.505-11.161 8.277Z"/><path fill="#8E8F99" d="M71.846 33.948C74.56 29.025 79.269 25.227 85 23.334V10.152s-25.018 8.505-24.489 20.809v20.806s1.115-.38 2.869-1.094c0-.665 0-1.336.08-2.01.518-5.712 3.534-11.005 8.386-14.715Z"/><path fill="#8E8F99" d="M69.466 41.677a19.57 19.57 0 0 1 .876-4.26c-3.022 3.204-4.851 7.18-5.232 11.369-.036.395-.056.79-.066 1.198a75.805 75.805 0 0 0 4.812-2.283 19.43 19.43 0 0 1-.39-6.024ZM70.461 41.752a18.568 18.568 0 0 0 .31 5.455c6.835-3.682 14.515-9.37 14.219-16.246v-.6c-4.883.493-9.452 2.415-13.005 5.471a18.817 18.817 0 0 0-1.524 5.92Z"/></svg>
